X:54
T:Dunmore Lasses (reel), The 
B:CRE1.189 (Gearrchailiu an Duin Mhoir)
F:file ID: cre.1/054dunm_L
S:Ned Stapleton
M:C
L:1/8
Q:180
R:reel
K:Em
EDEF GFGA|Beed Bee2|EDEF G2BG|A2BA GEE2|
EDEF GFGA|Beed e2ef|(3gfe (3fed edBG|AcBA GEE2||
gfeg fedf|Bee2 Bee2|gfeg fedB|AcBA GEE2|
gfeg fede|Beed e2ef|gefd edBG|AcBA GEE2||

%%%

